X: 339
T: Bin Zebân Söylersin
C: Yusuf Ziya Paşa
O: Turkey
F: http://compmusic.upf.edu/node/140
N: nisaburek--sarki--musemmen--bin_zeban--yusuf_ziya_pasa
N: makam= nisaburek
N: form= sarki
N: usul= musemmen = 8/8
M: 8/8
L: 1/16
K: C ^9/8f ^3/4c ^3/4g 
Q: 1/4=150
%%MIDI tuningsystem comma53
E4 A2c4G2 A2B2  | c4 A2B2 A2c4z2  | d2c2 B2A4c6  | \
w:  ARANAĞME  |   |   | 
d4 c2e8-e2  | 
w:   | 
e2f2 g2a4e6  | e2d2 c2B8c2  | d2c2 B2A4f2 e2d2  | \
w:   |   |   | 
c4 A2B2 c2A6  | 
w:   | 
E4 A2c4G2 A2B2  | c4 A2B2 A2c4z2  | d2c2 B2A4c6  | \
w:  ARANAĞME  |   |   | 
d4 c2e8-e2  | 
w:   | 
e2f2 g2a4e6  | e2d2 c2B8c2  | d2c2 B2A4f2 e2d2  | \
w:   |   |   | 
c4 A2B2 c2A6  | 
w:   | 
A4 cde4d2 e2f2  | {a}=g2f2 e2c2 d2B6  | \
w:  Bin  ze *  bân  söy  |  *  ler *  sin  ol  *  çeşm_  | 
d2c2 B2e2 d2c3BA2  | 
w:  i  *  sü han *  per  | 
c4 d2e8-e2  | A4 cde4d2 e2f2  | {a}=g2f2 e2c2 d2B6  | \
w:  dâz_ i le    |  Bin  ze *  bân  söy  |  *  ler *  sin  ol  *  çeşm_  | 
d2c2 B2e2 d2c3BA2  | 
w:  i  *  sü han *  per  | 
c4 d2e8-e2  | e2f2 g2a4e6  | {e}d2c2 B2c2 A2e6  | \
w:  dâz_ i le    |  Dâ *  si tan lar   |  *  şerh_ *  e der *  sin   | 
f2e2 d2c2 A2B2 c2d2  | 
w:  bir  *  ni gâh_ *  ı   | 
c3B A2B3cA6  | e2f2 g2a4e6  | {e}d2c2 B2c2 A2e6  | \
w:  nâz_ *  i le    |  Dâ *  si tan lar   |  *  şerh_ *  e der *  sin   | 
f2e2 d2c2 A2B2 c2d2  | 
w:  bir  *  ni gâh_ *  ı   | 
c3B A2B3cA6  | d4 d2d2 _3/4e2{f}e2 d2c2  | \
w:  nâz_ *  i le    |  Sen  i tâb_ *  *  ü   | 
d2{_3/4e}d2 c2c2 B2B6  | c2B2 A2G2 A2B2 c2d2  | 
w:  nâ *  *  zı  kas *  det  |  sen  *  da hî  *  ol   | 
d2c2 B2c2 A2e6  | e2f2 g2a4e6  | {e}d2c2 B2c2 A2e4z2  | \
w:  çeşm_ *  *  i  *  şûh    |  Â *  şı kı  mem  |  *  nûn_ *  e der  *  bir   | 
f2e2 d2c2 A2B2 c2d2  | 
w:  şî *  ve  i  *  müm  | 
c3B A2B3cA6  | e2f2 g2a4e6  | {e}d2c2 B2c2 A2e4z2  | \
w:  tâz_ *  i le    |  Â *  şı kı  mem  |  *  nûn_ *  e der  *  bir   | 
f2e2 d2c2 A2B2 c2d2  | 
w:  şî *  ve  i  *  müm  | 
c3B A2B3cA6  | |


